X:103
T: Die verunglueckte Muellerstochter
N: Q0106
O: Mitteleuropa, Deutschland (BRD) , Hessen, Nassau
R: Ballade, Unfall, Tod
M: 4/4
L: 1/8
K: F
FG | AAAAAcBA | AGG2z2
GA | B2BBBdcB | BAA2z2
c2 | c2Acc2Ac | f2edc2z
c | c2fcc2Ac | B2GBA2
c2 | c2Acc2Ac | f2edc2z
c | c2fcc2Ac | B2GBA2

@@@ Tune index: 1396
